src/images/compost.svg

<svg width="112" height="165" viewBox="0 0 112 165" fill="none" xmlns="http://www.w3.org/2000/svg">
<path d="M95.2892 54.7977C94.3207 53.8003 92.727 53.7763 91.7306 54.7459L58.6094 86.9559V23.6241C58.6094 22.245 57.5474 21.0416 56.1696 21.0012C54.7452 20.9582 53.5758 22.1022 53.5758 23.5192V111.784L21.3221 78.5549C20.3535 77.5575 18.7598 77.5347 17.7635 78.5043C16.7659 79.4738 16.7431 81.0678 17.7117 82.0665L53.5758 119.014V142.376C53.5758 143.755 54.6378 144.957 56.0155 144.999C57.44 145.042 58.6094 143.898 58.6094 142.481V93.9805L95.2375 58.3599C96.2338 57.3903 96.2566 55.795 95.2892 54.7977Z" fill="#336B68"/>
<path d="M43.0295 36.2307C42.3858 33.7317 42 31.1011 42 28.3853C42 15.9441 50.0985 5.29631 53.9763 0.909873C55.0489 -0.303291 56.9499 -0.303291 58.0224 0.909873C61.9003 5.29631 70 15.9453 70 28.3853C70 44.7404 56 58 56 58C56 58 52.733 54.452 48.9298 49.2183C44.5726 43.224 43.0295 36.2307 43.0295 36.2307Z" fill="#6E9694"/>
<path d="M57.7435 0.909873C56.646 -0.303291 54.7007 -0.303291 53.6032 0.909873C52.6079 2.01024 51.3395 3.50539 50 5.32388C54.0018 10.753 58.6507 19.066 58.6507 28.3853C58.6507 37.6519 54.0536 45.9235 50.066 51.3539C53.2188 55.3932 55.674 58 55.674 58C55.674 58 70 44.7404 70 28.384C69.9987 15.9453 61.7116 5.29631 57.7435 0.909873Z" fill="#336B68"/>
<path d="M103.582 38.509C105.359 38.2395 106.916 38.0887 108.147 38.0061C109.764 37.8965 111.1 39.2672 110.994 40.9228C110.608 46.9096 108.742 60.4936 99.903 69.544C88.2804 81.4427 69.0021 80.9978 69.0021 80.9978C69.0021 80.9978 68.5664 61.2608 80.189 49.3607C82.7959 46.6929 85.7566 44.5822 88.8584 43.0748C96.0531 39.5767 103.582 38.509 103.582 38.509Z" fill="#6E9694"/>
<path d="M108.147 38.0061C106.916 38.0887 105.359 38.2395 103.582 38.5077C103.582 38.5077 100.414 38.9591 96.227 40.2279C96.2685 40.4522 96.2862 40.6843 96.2711 40.9229C95.8844 46.9085 94.0193 60.4942 85.18 69.5449C80.465 74.3726 74.4893 77.1669 69.0527 78.7851C68.9835 80.1842 69.0024 80.9978 69.0024 80.9978C69.0024 80.9978 88.2805 81.444 99.903 69.5449C108.742 60.4942 110.608 46.9085 110.994 40.9229C111.1 39.2672 109.764 37.8965 108.147 38.0061Z" fill="#336B68"/>
<path d="M31.8098 73.097C43.4324 84.7193 42.9979 103.998 42.9979 103.998C42.9979 103.998 23.7185 104.434 12.0959 92.8101C3.25647 83.9712 1.39137 70.7015 1.006 64.855C0.89896 63.2366 2.23765 61.8978 3.85466 62.0061C9.70184 62.3915 22.9704 64.2568 31.8098 73.097Z" fill="#6E9694"/>
<path d="M31.7933 73.0966C22.9399 64.2567 9.65033 62.3915 3.79389 62.0061C2.43415 61.9154 1.27497 62.8449 1 64.1018C6.41623 65.6862 12.3547 68.4116 17.0469 73.0966C26.3228 82.3572 27.9311 96.4792 28.201 101.835C36.1778 104.15 42.9979 103.998 42.9979 103.998C42.9979 103.998 43.4343 84.7186 31.7933 73.0966Z" fill="#336B68"/>
<path d="M0.0287137 165C0.0287137 165 -1.37645 152.817 15.4729 151.076C25.5249 150.037 22.4924 136.803 32.672 133.67C43.4929 130.339 46.6453 140.559 55.1357 139.588C64.2623 138.543 67.4223 133.322 75.1438 135.062C82.8665 136.803 82.5496 148.526 94.7997 149.682C109.542 151.075 111.649 157.689 112 165H0.0287137Z" fill="#865B19"/>
<path d="M94.7853 149.83C82.525 148.683 82.8422 137.073 75.113 135.349C70.5364 134.328 67.562 135.726 64 137.25C68.3984 141.089 70.0701 148.9 80.0131 149.83C94.7676 151.209 96.8765 157.76 97.2278 165H112C111.649 157.76 109.54 151.209 94.7853 149.83Z" fill="#5A4930"/>
<path d="M34.9536 151.323C38.1906 151.323 38.1969 146.292 34.9536 146.292C31.7165 146.292 31.7102 151.323 34.9536 151.323Z" fill="#C2AB87"/>
<path d="M60.9282 158.694C64.1665 158.694 64.1715 153.662 60.9282 153.662C57.6899 153.662 57.6848 158.694 60.9282 158.694Z" fill="#C2AB87"/>
<path d="M74.6172 149.569C77.8542 149.569 77.8605 144.538 74.6172 144.538C71.3801 144.538 71.3738 149.569 74.6172 149.569Z" fill="#C2AB87"/>
</svg>

<svg xmlns="http://www.w3.org/2000/svg" width="112" height="165" fill="none"><path fill="#336B68" d="M95.3 54.8c-1-1-2.6-1-3.6 0L58.7 87V23.6c0-1.4-1.2-2.6-2.5-2.6a2.5 2.5 0 00-2.6 2.5v88.3L21.3 78.6a2.5 2.5 0 10-3.6 3.5l35.9 37v23.3c0 1.4 1 2.6 2.4 2.6s2.6-1.1 2.6-2.5V94l36.6-35.6c1-1 1-2.6 0-3.6z"/><path fill="#6E9694" d="M43 36.2c-.6-2.5-1-5.1-1-7.8C42 15.9 50.1 5.3 54 .9c1-1.2 3-1.2 4 0C62 5.3 70 16 70 28.4 70 44.7 56 58 56 58s-3.3-3.5-7-8.8c-4.4-6-6-13-6-13z"/><path fill="#336B68" d="M57.7 1a2.8 2.8 0 00-4.1 0c-1 1-2.3 2.5-3.6 4.3 4 5.5 8.7 13.8 8.7 23 0 9.4-4.6 17.6-8.6 23 3.1 4 5.6 6.7 5.6 6.7S70 44.7 70 28.4C70 15.9 61.7 5.3 57.7.9z"/><path fill="#6E9694" d="M103.6 38.5l4.5-.5c1.7-.1 3 1.3 2.9 3-.4 6-2.3 19.5-11.1 28.5C88.3 81.5 69 81 69 81s-.4-19.7 11.2-31.6c2.6-2.7 5.6-4.8 8.7-6.3 7.2-3.5 14.7-4.6 14.7-4.6z"/><path fill="#336B68" d="M108.1 38c-1.2 0-2.7.2-4.5.5 0 0-3.2.5-7.4 1.7v.7c-.3 6-2.2 19.6-11 28.6A37.2 37.2 0 0169 78.8L69 81s19.3.4 30.9-11.5c8.8-9 10.7-22.6 11-28.6.2-1.6-1.1-3-2.8-2.9z"/><path fill="#6E9694" d="M31.8 73.1C43.4 84.7 43 104 43 104s-19.3.4-30.9-11.2a45 45 0 01-11-28C.8 63.3 2.1 62 3.8 62a45 45 0 0128 11.1z"/><path fill="#336B68" d="M31.8 73.1a45.1 45.1 0 00-28-11c-1.4-.2-2.5.7-2.8 2a37.4 37.4 0 0116 9 45.5 45.5 0 0111.2 28.7c8 2.4 14.8 2.2 14.8 2.2s.4-19.3-11.2-30.9z"/><path fill="#865B19" d="M0 165s-1.4-12.2 15.5-14c10-1 7-14.2 17.2-17.3 10.8-3.4 14 6.9 22.4 5.9 9.2-1 12.3-6.3 20-4.5 7.8 1.7 7.4 13.4 19.7 14.6 14.7 1.4 16.8 8 17.2 15.3H0z"/><path fill="#5A4930" d="M94.8 149.8c-12.3-1.1-12-12.7-19.7-14.5-4.6-1-7.5.4-11.1 2 4.4 3.8 6 11.6 16 12.5 14.8 1.4 16.9 8 17.2 15.2H112c-.4-7.2-2.5-13.8-17.2-15.2z"/><path fill="#C2AB87" d="M35 151.3c3.2 0 3.2-5 0-5-3.3 0-3.3 5 0 5zM61 158.7c3.2 0 3.2-5 0-5-3.3 0-3.3 5 0 5zM74.6 149.6c3.3 0 3.3-5 0-5-3.2 0-3.2 5 0 5z"/></svg>
